FINK
CUT[WENN IM THAU DER ABENDKUEHLE]
REG[Europa, Mitteleuropa, Deutschland]
KEY[F0987  16 Eb 4/4 3/4]
MEL[5__5__  5_.+13__1_.32_.5  4__3__
    5_+1_+3_+1_  5_3_1_-5_4__3__  2___
    2__2__  2_3_4#_5_6_7_+1_+2_  +1_7_7__
    +2_7_5_2_  3_4#_5_6_2__3_4_  5__0___.
    5__6__7__  +1_.+35__.0_
    +2_7_5__.4_  3___.
    6__6__6__  5__3__1__
    -5__.-6_-7__  1___. //] >>
FCT[Natur - Lied]
